X:1
T:Dream
T:Dream
T:A Sad Piano Song
T:https://www.youtube.com/watch?v=hpVd1idoUa8
T:https://www.youtube.com/watch?v=hpVd1idoUa8
T:https://www.youtube.com/watch?v=hpVd1idoUa8
C:Saurik85
Z:https://www.youtube.com/watch?v=hpVd1idoUa8
%%score { 1 | 2 }
L:1/8
Q:1/4=108
M:4/4
K:Db
V:1 treble nm="Piano" snm="Pno."
V:2 bass 
V:1
!mf! G4 G4 | G4 F4 | G4 G4 | d4 =B4 | B4 B4 | B4 A4 | G4 G4 | d4 =B4 | B4 B4 | B8- | %10
 B4!>(! abaf!>)! |: gege abag | d'ege =b_bag | d'gbg abag |1 f2 z2 abaf :|2!<(! f4 ABAF!<)! || %16
 GEGE ABA!ff!G | dEGE =B_BAG | dGBG ABAG | F4 ABAF | GEGE ABAG | eEGE ABAG | dGBG ABAG | %23
 F4!>(! abaf!>)! | g4 g'4 | f' e'2 d'2 =b2 _b- |!<(! b z z2 z4!<)! | z8 | z4!>(! abaf!>)! | %29
!mp! g4 g'4 | f' e'2 d'2 =b2 _b- | b2 z2 z4 | z4 abaf |!<(! g4 g4!<)! | g4 a4 |!ff! b4 g2 _c'b | %36
 a4 f4 | g4 e4 | e4 f4 | g6 ag | f4 d4 | bfbf .b.f.b.f | .b.f.b f4 z |:!ff! gege abag | %44
 d'ege =b_bag | d'gbg abag | f2 z2 abaf :|!>(! [EG]8!>)! | d4 =B4 | [GB]8- | [GB]4 ABAF | [EG]8 | %52
 d4 =B4 | [GB]8 | z8 | z8 | z8 | z8 | z8 | z8 | z8 | z8 |] %62
V:2
!ped! z8!ped-up! | z8 |!ped! [E,B,E]8!ped-up! | [=B,,G,=B,]8 |!ped! [G,,D,G,]8-!ped-up! | %5
 [G,,D,G,]4 [B,,F,B,]4 |!ped! [E,B,E]8!ped-up! | [=B,,G,=B,]8 |!ped! [G,,D,G,]8!ped-up! | %9
 [B,,F,B,]8- |!ped! [B,,F,B,]8!ped-up! |:!mp!!ped! E2 B2 z4!ped-up! |!ped! =B,2 G2 z4!ped-up! | %13
!ped! G,2 D2 z4!ped-up! |1!ped! D2 A2 z4!ped-up! :|2!ped! D2 A2 G,2 F,2!ped-up! || %16
!ped! E,,E,G,B, EB,G,E,!ped-up! |!ped! =B,,,=B,,E,G, =B,G,E,=B,,!ped-up! | %18
!ped! G,,G,B,D GDB,G,!ped-up! |!ped! B,,F,B,D FDB,F,!ped-up! |!ped! E,,E,G,B, EB,G,E,!ped-up! | %21
!ped! =B,,,=B,,E,G, =B,G,E,=B,,!ped-up! |!ped! G,,G,B,D GDB,G,!ped-up! | %23
!ped! B,,F,B,D FDB,F,!ped-up! |!mf!!ped! E,,B,,E,F, G,4!ped-up! |!ped! =B,,,=B,,E,G, =B,4!ped-up! | %26
!ped! G,,D,B,D B4!ped-up! |!ped! B,,F,B,C D4!ped-up! |!f!!ped! B,,F,B,C D4!ped-up! | %29
!ped! E,,B,,E,F, G,4!ped-up! |!ped! =B,,,=B,,E,G, =B,4!ped-up! |!ped! G,,D,B,D B4!ped-up! | %32
!ped! B,,F,B,C D4!ped-up! |!ped! =B,,,=B,,E,G, =B,4!ped-up! |!ped! =B,,G,=B,E D,A,DF!ped-up! | %35
!ped! E,B,EF GFED!ped-up! |!ped! B,,F,B,C DCB,F,!ped-up! |!ped! =B,,G,=B,D ED=B,G,!ped-up! | %38
!ped! =B,,G,=B,E D,A,DF!ped-up! |!ped! E,B,EF G/F/E DB,!ped-up! |!ped! B,,F,B,C DCB,F,!ped-up! | %41
!fff! B,,F,B,D!8va(! .[B,B].[F,F].[D,D].[B,,B,]!8va)! | .[F,,F,].[D,,D,].[B,,,B,,] [F,,,F,,]4 z |: %43
!ped! [E,,E,]2 B,2 E2 B,2!ped-up! |!ped! [=B,,,=B,,]2 G,2 =B,2 G,2!ped-up! | %45
!ped! [G,,G,]2 D2 G2 D2!ped-up! |!ped! [B,,,B,,]2 F,2 B,2 F,2!ped-up! :| [E,B,]8 | %48
!mp! [=B,,G,=B,]8 | [G,,D,G,]8- | [G,,D,G,]4 F,4 | [E,B,]8 | [=B,,G,=B,]8 | [G,,D,G,]8 | z8 | z8 | %56
 z8 | z8 | z8 | z8 | z8 | z8 |] %62

